!!!OTL@@DE: Der Dorfschulmeister
!!!ONB: Volksweise nach Leonhard von Call's Bearbeitung
!!!OMD: M&auml;ssig
!!!OCL: Erk, Ludwig
!!!GCO: Deutscher Liederschatz, Band 3
**kern	**kern	**kern
*staff3	*staff2	*staff1
=1-	=1-	=1-
*clefF4	*clefG2	*clefG2
*Ipiano	*Ipiano	*Ivox
*>[A,A,B,B]	*>[A,A,B,B]	*>[A,A,B,B]
*>norep[A,B]	*>norep[A,B]	*>norep[A,B]
*>A	*>A	*>A
*k[f#]	*k[f#]	*k[f#]
*G:	*G:	*G:
*M2/4	*M2/4	*M2/4
*MM88	*MM88	*MM88
*	*	*^
4G\ 4B\	8g/L	8g/	8g\
.	8g/J	8g/	8g\
4GG/ 4G/	8b\ 8dd\L	8dd/	8b\
.	8b\ 8dd\J	8dd/	8b\
=2	=2	=2	=2
8C/L	8cc\ 8ee\L	8ee/	8cc\
8E/J	8cc\ 8ee\J	8ee/	8cc\
4G\	4b\ 4dd\	4dd/	4b\
=3	=3	=3	=3
8F#\L	8a\ 8cc\L	8cc/	8a\
8D\J	8a\ 8cc\J	8cc/	8a\
8G\L	8g/ 8b/L	8b/	8g\
8BB\J	8g/ 8b/J	8b/	8g\
=4	=4	=4	=4
*	*^	*	*
8C/L	8a/L	8e\ 8g\L	8a/	8e\
8D/J	8a/J	8d\ 8f#\J	16a/	16f#\
.	.	.	16a/	16f#\
4GG/	4g/	4B\	8g/	8g\
*	*	*	*v	*v
.	.	.	8r
*	*v	*v	*
=5:|!|:	=5:|!|:	=5:|!|:
*>B	*>B	*>B
*	*	*^
8r	8b\ 8dd\L	8dd/	8b\
8D\	8b\ 8dd\J	8dd/	8b\
8F#\L	8a\ 8cc\L	8cc/	8a\
8D\J	8a\ 8cc\J	8cc/	8a\
=6	=6	=6	=6
8G/L	8g/ 8b/L	8b/	8g\
8GG/J	8g/ 8b/J	8b/	8g\
4D/	4f#/ 4a/	4a/	4f#\
=7	=7	=7	=7
8r	8b\ 8dd\L	8dd/	8b\
8D\	8b\ 8dd\J	8dd/	8b\
8F#\L	8a\ 8cc\L	8cc/	8a\
8D\J	8a\ 8cc\J	8cc/	8a\
=8	=8	=8	=8
8G/L	8g/ 8b/L	8b/	8g\
8GG/J	8g/ 8b/J	8b/	8g\
4D/	4f#/ 4a/	4a/	4f#\
=9	=9	=9	=9
8B\L	8d/ 8g/L	8g/	8g\
8G\J	8d/ 8g/J	8g/	8g\
8GG/L	8b\ 8dd\L	8dd/	8b\
8G/J	8b\ 8dd\J	8dd/	8b\
=10	=10	=10	=10
8C/L	8cc\ 8ee\L	8ee/	8cc\
8E/J	8cc\ 8ee\J	8ee/	8cc\
4G\	4b\ 4dd\	4dd/	4b\
=11	=11	=11	=11
8F#\L	8a\ 8cc\L	8cc/	8a\
8D\J	8a\ 8cc\J	16cc/	16a\
.	.	16cc/	16a\
8G\L	8g/ 8b/L	8b/	8g\
8BB\J	8g/ 8b/J	16b/	16g\
.	.	16b/	16g\
=12	=12	=12	=12
*	*^	*	*
8C/L	8a/L	8e\ 8g\L	8a/	8e\
8D/J	8a/J	8d\ 8f#\J	8a/	8f#\
4GG/	4g/	4B\	8g/	8g\
.	.	.	8r	8ryy
*	*v	*v	*	*
*	*	*v	*v
==:|!	==:|!	==:|!
*-	*-	*-
!!!ENC: Craig Stuart Sapp
!!!END: 2004/05/21/
!!!EFL: 401/600
